images/food.svg

<svg width="75" height="70" viewBox="0 0 75 70" fill="none" xmlns="http://www.w3.org/2000/svg">
<path d="M70.7759 46.7H4.8105C2.50472 46.7 0.700195 48.6 0.700195 51V54.5C0.700195 56.9 2.60497 58.8 4.8105 58.8H5.71276V59.9C5.71276 65.4 10.0236 70 15.3369 70H60.049C65.3623 70 69.6731 65.5 69.6731 59.9V58.8H70.5754C72.8811 58.8 74.6857 56.9 74.6857 54.5V51C74.8862 48.7 72.9814 46.7 70.7759 46.7ZM66.8661 59.9C66.8661 63.8 63.8585 66.9 60.1492 66.9H15.3369C11.6276 66.9 8.62005 63.7 8.62005 59.9V58.8H66.8661V59.9ZM71.9789 54.5C71.9789 55.2 71.3774 55.8 70.7759 55.8H4.71025C4.00849 55.8 3.50723 55.2 3.50723 54.5V51C3.50723 50.3 4.10874 49.7 4.71025 49.7H70.6756C71.3774 49.7 71.8786 50.3 71.8786 51C71.9789 51 71.9789 54.5 71.9789 54.5Z" fill="#83B3D3"/>
<path d="M16.3394 38.4L21.753 42.5L27.0663 38.4L32.3796 42.5L37.6929 38.4L43.1065 42.5L48.4198 38.4L53.7331 42.5L59.1467 38.4L64.46 42.5L70.6756 37.8L68.9713 35.3L64.46 38.7L59.1467 34.6L53.7331 38.7L48.4198 34.6L43.1065 38.7L37.6929 34.6L32.3796 38.7L27.0663 34.6L21.753 38.7L16.3394 34.6L11.0261 38.7L6.51477 35.3L4.8105 37.8L11.0261 42.5L16.3394 38.4Z" fill="#83B3D3"/>
<path d="M8.7203 31.5H69.6731C69.6731 30.9 69.7734 30.3 69.7734 29.6C69.7734 29.2 69.7734 28.8 69.7734 28.4C69.0716 12.7 55.0364 0 37.7932 0C20.4497 0 6.41452 12.7 5.71276 28.5C5.71276 28.9 5.71276 29.3 5.71276 29.7C5.71276 30.3 5.70834 30.9 5.80859 31.5H8.7203ZM37.7932 3C53.4324 3 66.2646 14.3 66.8661 28.5H8.7203C9.32181 14.4 22.154 3 37.7932 3Z" fill="#83B3D3"/>
<path d="M37.7932 17.3C38.8452 17.3 39.698 16.4046 39.698 15.3C39.698 14.1954 38.8452 13.3 37.7932 13.3C36.7412 13.3 35.8884 14.1954 35.8884 15.3C35.8884 16.4046 36.7412 17.3 37.7932 17.3Z" fill="#83B3D3"/>
<path d="M29.9736 12.2C31.0256 12.2 31.8784 11.3046 31.8784 10.2C31.8784 9.09543 31.0256 8.2 29.9736 8.2C28.9216 8.2 28.0688 9.09543 28.0688 10.2C28.0688 11.3046 28.9216 12.2 29.9736 12.2Z" fill="#83B3D3"/>
<path d="M45.5125 12.2C46.5645 12.2 47.4173 11.3046 47.4173 10.2C47.4173 9.09543 46.5645 8.2 45.5125 8.2C44.4606 8.2 43.6078 9.09543 43.6078 10.2C43.6078 11.3046 44.4606 12.2 45.5125 12.2Z" fill="#83B3D3"/>
</svg>

<svg xmlns="http://www.w3.org/2000/svg" width="75" height="70" fill="none"><path fill="#83B3D3" d="M70.776 46.7H4.81C2.505 46.7.7 48.6.7 51v3.5c0 2.4 1.904 4.3 4.11 4.3h.902v1.1c0 5.5 4.31 10.1 9.624 10.1h44.712c5.313 0 9.624-4.5 9.624-10.1v-1.1h.902c2.306 0 4.11-1.9 4.11-4.3V51c.201-2.3-1.704-4.3-3.91-4.3Zm-3.91 13.2c0 3.9-3.008 7-6.717 7H15.337c-3.71 0-6.717-3.2-6.717-7v-1.1h58.246v1.1Zm5.113-5.4c0 .7-.602 1.3-1.203 1.3H4.71c-.702 0-1.203-.6-1.203-1.3V51c0-.7.602-1.3 1.203-1.3h65.966c.701 0 1.203.6 1.203 1.3.1 0 .1 3.5.1 3.5ZM16.34 38.4l5.413 4.1 5.313-4.1 5.314 4.1 5.313-4.1 5.413 4.1 5.314-4.1 5.313 4.1 5.414-4.1 5.313 4.1 6.216-4.7-1.705-2.5-4.511 3.4-5.313-4.1-5.414 4.1-5.313-4.1-5.314 4.1-5.413-4.1-5.313 4.1-5.314-4.1-5.313 4.1-5.414-4.1-5.313 4.1-4.511-3.4-1.704 2.5 6.215 4.7 5.313-4.1Zm-7.62-6.9h60.953c0-.6.1-1.2.1-1.9v-1.2C69.072 12.7 55.036 0 37.793 0 20.45 0 6.415 12.7 5.713 28.5v1.2c0 .6-.005 1.2.096 1.8H8.72ZM37.793 3c15.64 0 28.472 11.3 29.073 25.5H8.72C9.322 14.4 22.154 3 37.793 3Z"/><path fill="#83B3D3" d="M37.793 17.3c1.052 0 1.905-.895 1.905-2s-.853-2-1.905-2-1.905.895-1.905 2 .853 2 1.905 2Zm-7.819-5.1c1.052 0 1.904-.895 1.904-2s-.852-2-1.904-2-1.905.895-1.905 2 .853 2 1.905 2Zm15.539 0c1.052 0 1.904-.895 1.904-2s-.852-2-1.904-2-1.905.895-1.905 2 .853 2 1.905 2Z"/></svg>
